X:76
T: Jungfer Doertchen
N: Q0057O
O: Osteuropa, UdSSR, Russland, Wolgakolonie
N: Zweistimmig notiert, Oberstimme kodiert. Verzierungen (Vorschlaege)
N: in der ersten und letzten Zeile.
R: Ballade, Todesahnung, Tod, Selbstmord
M: 4/4
L: 1/32
K: G
D4G8F8 | A8G4A4B8c2dcB2c2 | A8z4
D4c8B6cA | d8c2B2c4B8GAF6 | G8z4
D4G4A4G4A4 | A12G4B8c2dcB2c2 | A8z4
G4F2G2A4c2B2c4 | A4B4G8B8GAF6 | G8z4

